Catalina-light/actions/16/list-remove-all.svg

<svg width="16" height="16" viewBox="0 0 16 16" xmlns="http://www.w3.org/2000/svg">
<defs>
<style id="current-color-scheme" type="text/css">.ColorScheme-Text { color:#5c616c; } .ColorScheme-Highlight { color:#5294e2; }</style>
</defs>
<path class="ColorScheme-Text" d="m3 3v2h10v-2h-10zm0 4v2h6.6875c0.77002-0.61639 1.7494-1 2.8125-1 0.17178 0 0.33323 0.0438 0.5 0.0625v-1.0625h-10zm0 4v2h5.0625c-0.0187-0.16677-0.0625-0.32822-0.0625-0.5 0-0.53043 0.11271-1.0274 0.28125-1.5h-5.2812z" fill="currentColor"/>
<path class="ColorScheme-Highlight" d="m12.5 9c-1.933 0-3.5 1.567-3.5 3.5s1.567 3.5 3.5 3.5 3.5-1.567 3.5-3.5-1.567-3.5-3.5-3.5zm-2.5 3h5v1h-5v-1z" fill="currentColor"/>
</svg>

<svg xmlns="http://www.w3.org/2000/svg" width="16" height="16" viewBox="0 0 16 16">
 <defs>
  <style id="current-color-scheme" type="text/css">
   .ColorScheme-Text { color:#5c616c; } .ColorScheme-Highlight { color:#5294e2; }
  </style>
 </defs>
 <path style="fill:currentColor" class="ColorScheme-Text" d="M 3 3 L 3 5 L 13 5 L 13 3 L 3 3 z M 3 7 L 3 9 L 9.6875 9 C 10.45752 8.38361 11.4369 8 12.5 8 C 12.67178 8 12.83323 8.0438 13 8.0625 L 13 7 L 3 7 z M 3 11 L 3 13 L 8.0625 13 C 8.0438 12.83323 8 12.67178 8 12.5 C 8 11.96957 8.11271 11.4726 8.28125 11 L 3 11 z"/>
 <path style="fill:currentColor" class="ColorScheme-Highlight" d="M 12.5 9 C 10.567 9 9 10.567 9 12.5 C 9 14.433 10.567 16 12.5 16 C 14.433 16 16 14.433 16 12.5 C 16 10.567 14.433 9 12.5 9 z M 10 12 L 12.5 12 L 15 12 L 15 13 L 10 13 L 10 12 z"/>
</svg>
